img/boia.svg

<svg width="60" height="61" viewBox="0 0 60 61" version="1.1" xmlns="http://www.w3.org/2000/svg" xmlns:xlink="http://www.w3.org/1999/xlink">
<title>boia</title>
<desc>Created using Figma</desc>
<g id="Canvas" transform="translate(-745 -1108)">
<g id="boia">
<use xlink:href="#path0_fill" transform="translate(745 1108)" fill="#1188EE"/>
<use xlink:href="#path1_fill" transform="translate(745 1108)" fill="#1188EE"/>
<use xlink:href="#path2_fill" transform="translate(745 1108)" fill="#1188EE"/>
<use xlink:href="#path3_fill" transform="translate(745 1108)" fill="#1188EE"/>
<use xlink:href="#path4_fill" transform="translate(745 1108)" fill="#1188EE"/>
<use xlink:href="#path5_fill" transform="translate(745 1108)" fill="#1188EE"/>
<use xlink:href="#path6_fill" transform="translate(745 1108)" fill="#1188EE"/>
<use xlink:href="#path7_fill" transform="translate(745 1108)" fill="#1188EE"/>
<use xlink:href="#path8_fill" transform="translate(745 1108)" fill="#1188EE"/>
<use xlink:href="#path9_fill" transform="translate(745 1108)" fill="#1188EE"/>
<use xlink:href="#path10_fill" transform="translate(745 1108)" fill="#1188EE"/>
<use xlink:href="#path11_fill" transform="translate(745 1108)" fill="#1188EE"/>
<use xlink:href="#path12_fill" transform="translate(745 1108)" fill="#1188EE"/>
<use xlink:href="#path13_fill" transform="translate(745 1108)" fill="#1188EE"/>
<use xlink:href="#path14_fill" transform="translate(745 1108)" fill="#1188EE"/>
<use xlink:href="#path15_fill" transform="translate(745 1108)" fill="#1188EE"/>
<use xlink:href="#path16_fill" transform="translate(745 1108)" fill="#1188EE"/>
</g>
</g>
<defs>
<path id="path0_fill" fill-rule="evenodd" d="M 30.7412 13.7432C 28.03 13.5352 25.221 14.1241 22.8119 15.3476C 19.9586 16.797 17.3181 19.037 15.6908 21.8752C 14.0578 24.7238 13.2716 28.1861 13.649 31.4719C 14.1002 35.4001 15.7425 39.5293 18.7537 42.3047C 21.9924 45.2898 26.6537 47.2349 31.1411 46.9273C 35.6956 46.6152 40.0608 43.9826 42.9244 40.5817C 45.3523 37.6985 46.4236 33.7773 46.4467 30.1384C 46.4617 26.0219 45.5205 21.3024 42.4693 18.1413C 39.4317 14.9944 34.7626 14.0557 30.7412 13.7475L 30.7412 13.7432ZM 30.5711 15.9064C 34.3652 16.1973 38.5027 17.1612 40.8953 19.6401C 43.3313 22.1636 44.2824 26.3603 44.2687 30.1257C 44.2482 33.3406 43.2526 36.819 41.2569 39.189C 38.7479 42.1688 34.7791 44.5043 30.9879 44.7642C 27.2524 45.0201 23.0423 43.3057 20.234 40.7172C 17.7348 38.4137 16.2117 34.7239 15.8099 31.2264C 15.4921 28.4586 16.1786 25.39 17.5796 22.9462C 18.944 20.5662 21.2747 18.5602 23.7988 17.278C 25.8441 16.2393 28.2959 15.7319 30.5711 15.9064Z"/>
<path id="path1_fill" fill-rule="evenodd" d="M 32.0769 0.057094C 23.9609 -0.498844 15.3876 3.05611 9.48012 8.49824C 4.03715 13.5125 0.99586 21.0864 0.168286 28.2885C -0.515978 34.2432 0.918315 40.59 3.89047 45.7716C 6.83835 50.9105 11.6725 55.0178 16.899 57.6711C 21.274 59.8921 26.4081 60.9641 31.3197 60.5878C 38.7902 60.0156 47.3424 58.2392 52.7765 52.6125C 58.2499 46.9456 60.0273 38.2927 59.9997 30.7014C 59.9592 24.0408 57.9775 16.8594 53.5975 11.6604C 48.3626 5.44672 40.3144 0.626067 32.0769 0.0614595L 32.0769 0.057094ZM 31.9281 2.21616C 39.4027 2.72853 47.0456 7.25634 51.9257 13.0489C 55.8736 17.7348 57.7838 24.4738 57.8217 30.7099C 57.8481 37.9501 56.0647 46.08 51.2068 51.1097C 46.4179 56.0685 38.3929 57.874 31.1496 58.4289C 26.6736 58.7718 21.9013 57.7771 17.8901 55.7408C 12.9928 53.2548 8.46834 49.3769 5.78346 44.6964C 3.04357 39.9196 1.70881 33.9705 2.33353 28.534C 3.11158 21.7628 6.0296 14.6326 10.9605 10.0899C 16.4375 5.04443 24.5637 1.71159 31.9281 2.21616Z"/>
<path id="path2_fill" fill-rule="evenodd" d="M 17.4392 3.98135L 15.559 5.07775L 22.6375 17.1339L 24.5177 16.0375L 17.4392 3.98135Z"/>
<path id="path3_fill" fill-rule="evenodd" d="M 43.9071 4.608L 36.4202 15.8514L 38.2324 17.0494L 45.7193 5.80599L 43.9071 4.608Z"/>
<path id="path4_fill" fill-rule="evenodd" d="M 53.9166 14.4374L 43.0265 20.9396L 44.1496 22.798L 55.0396 16.2958L 53.9166 14.4374Z"/>
<path id="path5_fill" fill-rule="evenodd" d="M 44.5537 35.7009L 43.4392 37.5635L 56.235 45.1494L 57.3495 43.2868L 44.5537 35.7009Z"/>
<path id="path6_fill" fill-rule="evenodd" d="M 39.5766 42.6347L 37.5262 43.367L 42.4267 56.9133L 44.4771 56.181L 39.5766 42.6347Z"/>
<path id="path7_fill" fill-rule="evenodd" d="M 21.4124 43.4053L 14.6061 55.0551L 16.4863 56.143L 23.2926 44.4932L 21.4124 43.4053Z"/>
<path id="path8_fill" fill-rule="evenodd" d="M 16.3757 36.3654L 4.26057 43.1385L 5.32405 45.0307L 17.4392 38.2576L 16.3757 36.3654Z"/>
<path id="path9_fill" fill-rule="evenodd" d="M 5.36659 15.0427L 4.32863 16.9477L 15.627 23.0435L 16.665 21.1386L 5.36659 15.0427Z"/>
<path id="path10_fill" fill-rule="evenodd" d="M 7.06383 18.8823C 6.94019 18.8778 6.81866 18.9154 6.71926 18.9887L 2.15906 22.2398C 2.04171 22.324 1.96278 22.4512 1.93964 22.5933C 1.91649 22.7354 1.95103 22.8808 2.03564 22.9975C 2.12026 23.1143 2.24802 23.1928 2.39083 23.2158C 2.53364 23.2388 2.6798 23.2045 2.79715 23.1203L 7.35735 19.8692C 7.45146 19.8042 7.52257 19.7114 7.56057 19.6038C 7.59857 19.4963 7.60152 19.3795 7.56901 19.2702C 7.53649 19.1609 7.47017 19.0647 7.37948 18.995C 7.28878 18.9254 7.17833 18.8859 7.06383 18.8823Z"/>
<path id="path11_fill" fill-rule="evenodd" d="M 7.79978 20.5754C 7.65773 20.573 7.52034 20.6258 7.41693 20.7228L 1.35935 26.2768C 1.30655 26.3251 1.26384 26.3834 1.23366 26.4482C 1.20348 26.513 1.18642 26.583 1.18346 26.6543C 1.18049 26.7257 1.19168 26.7968 1.21638 26.8638C 1.24108 26.9309 1.27881 26.9925 1.32742 27.0451C 1.37602 27.0976 1.43455 27.1402 1.49966 27.1702C 1.56477 27.2002 1.63519 27.217 1.70689 27.22C 1.77859 27.2229 1.85016 27.2118 1.91753 27.1872C 1.9849 27.1626 2.04675 27.1249 2.09953 27.0766L 8.15711 21.5226C 8.23985 21.45 8.29847 21.3543 8.32518 21.2477C 8.3519 21.1412 8.34545 21.0288 8.30671 20.926C 8.26796 20.8232 8.19874 20.7345 8.10822 20.6717C 8.01769 20.6089 7.91013 20.576 7.79978 20.5754Z"/>
<path id="path12_fill" fill-rule="evenodd" d="M 8.64207 22.9463C 8.52035 22.9547 8.405 23.0035 8.31452 23.0849L 0.487302 29.926C 0.430399 29.9718 0.383354 30.0284 0.348976 30.0927C 0.314599 30.157 0.293594 30.2276 0.287217 30.3001C 0.280841 30.3727 0.289222 30.4457 0.311862 30.515C 0.334501 30.5842 0.370935 30.6482 0.418985 30.7031C 0.467035 30.758 0.525717 30.8027 0.591525 30.8346C 0.657333 30.8664 0.728916 30.8849 0.802 30.8886C 0.875084 30.8923 0.948168 30.8813 1.01689 30.8563C 1.08561 30.8313 1.14855 30.7926 1.20196 30.7428L 9.03343 23.9022C 9.12228 23.8286 9.18528 23.7286 9.21332 23.617C 9.24136 23.5054 9.23297 23.3878 9.18939 23.2812C 9.1458 23.1747 9.06927 23.0847 8.97087 23.0243C 8.87247 22.9639 8.75731 22.9372 8.64207 22.9463Z"/>
<path id="path13_fill" fill-rule="evenodd" d="M 9.09729 25.5875C 8.95584 25.5839 8.81853 25.635 8.71443 25.7304L 1.02334 32.639C 0.916194 32.7356 0.851974 32.8708 0.844808 33.0144C 0.837642 33.1581 0.888117 33.2986 0.98513 33.4052C 1.08214 33.5119 1.21775 33.5758 1.36213 33.583C 1.50651 33.5902 1.64783 33.5398 1.75502 33.4433L 9.44611 26.5347C 9.52835 26.4626 9.58678 26.3674 9.61376 26.2617C 9.64073 26.1559 9.635 26.0445 9.59731 25.9421C 9.55962 25.8396 9.49172 25.751 9.40251 25.6875C 9.31329 25.6241 9.20691 25.5898 9.09729 25.5875Z"/>
<path id="path14_fill" fill-rule="evenodd" d="M 9.87142 28.2291C 9.75023 28.2364 9.63494 28.2837 9.54387 28.3635L 1.24021 35.4753C 1.18441 35.5213 1.13838 35.5776 1.10481 35.6415C 1.07123 35.7053 1.05079 35.7753 1.04468 35.8471C 1.03857 35.9189 1.04692 35.9912 1.06922 36.0598C 1.09153 36.1283 1.12735 36.1917 1.1746 36.2463C 1.22184 36.3009 1.27955 36.3456 1.34436 36.3778C 1.40917 36.4099 1.47977 36.429 1.55203 36.4336C 1.62429 36.4383 1.69676 36.4286 1.7652 36.405C 1.83364 36.3815 1.89668 36.3447 1.95062 36.2966L 10.2543 29.1848C 10.3423 29.1116 10.4048 29.0126 10.433 28.902C 10.4611 28.7913 10.4534 28.6747 10.411 28.5686C 10.3685 28.4625 10.2935 28.3723 10.1966 28.3112C 10.0997 28.25 9.98592 28.2221 9.87142 28.2291Z"/>
<path id="path15_fill" fill-rule="evenodd" d="M 10.8243 31.2772C 10.7016 31.2834 10.5847 31.3308 10.4925 31.4116L 2.12079 38.5911C 2.01138 38.6854 1.9441 38.8191 1.93374 38.9628C 1.92339 39.1065 1.9708 39.2481 2.06556 39.357C 2.16032 39.4659 2.29466 39.533 2.43904 39.5433C 2.58342 39.5536 2.72601 39.5066 2.83545 39.4123L 11.2072 32.2328C 11.2952 32.1596 11.3577 32.0604 11.3859 31.9497C 11.414 31.839 11.4063 31.7224 11.3639 31.6163C 11.3214 31.5103 11.2464 31.4203 11.1495 31.3592C 11.0526 31.2981 10.9388 31.2701 10.8243 31.2772Z"/>
<path id="path16_fill" fill-rule="evenodd" d="M 11.4455 34.6637C 11.3231 34.6694 11.2062 34.7158 11.1137 34.7957L 3.15034 41.4334C 3.09531 41.479 3.04984 41.5352 3.01653 41.5982C 2.98323 41.6613 2.96273 41.7302 2.95621 41.8012C 2.9497 41.8721 2.95729 41.9435 2.97855 42.0115C 2.99982 42.0795 3.03435 42.1427 3.08016 42.1975C 3.12597 42.2523 3.18217 42.2977 3.24555 42.3308C 3.30893 42.364 3.37826 42.3842 3.44956 42.3906C 3.52086 42.3971 3.59274 42.3896 3.6611 42.3684C 3.72946 42.3472 3.79296 42.3129 3.84798 42.2673L 11.8113 35.6297C 11.9014 35.5583 11.9665 35.4603 11.9971 35.3498C 12.0277 35.2392 12.0222 35.1218 11.9816 35.0145C 11.9409 34.9073 11.8671 34.8155 11.7708 34.7526C 11.6744 34.6897 11.5606 34.6581 11.4455 34.6637Z"/>
</defs>
</svg>

<svg xmlns="http://www.w3.org/2000/svg" xmlns:xlink="http://www.w3.org/1999/xlink" viewBox="0 0 60 61"><g fill="#18E"><use xlink:href="#a"/><use xlink:href="#b"/><use xlink:href="#c"/><use xlink:href="#d"/><use xlink:href="#e"/><use xlink:href="#f"/><use xlink:href="#g"/><use xlink:href="#h"/><use xlink:href="#i"/><use xlink:href="#j"/><use xlink:href="#k"/><use xlink:href="#l"/><use xlink:href="#m"/><use xlink:href="#n"/><use xlink:href="#o"/><use xlink:href="#p"/><use xlink:href="#q"/></g><defs><path id="a" fill-rule="evenodd" d="M30.741 13.743c-2.711-.208-5.52.381-7.93 1.605-2.852 1.449-5.493 3.689-7.12 6.527-1.633 2.849-2.42 6.311-2.042 9.597.451 3.928 2.094 8.057 5.105 10.833 3.238 2.985 7.9 4.93 12.387 4.622 4.555-.312 8.92-2.944 11.783-6.345 2.428-2.883 3.5-6.805 3.523-10.444.015-4.116-.927-8.836-3.978-11.997-3.037-3.147-7.706-4.085-11.728-4.393v-.005Zm-.17 2.163c3.794.291 7.932 1.255 10.324 3.734 2.436 2.524 3.387 6.72 3.374 10.486-.02 3.215-1.016 6.693-3.012 9.063-2.51 2.98-6.478 5.315-10.27 5.575-3.735.256-7.945-1.458-10.753-4.047-2.5-2.303-4.022-5.993-4.424-9.49-.318-2.768.369-5.837 1.77-8.28 1.364-2.38 3.695-4.387 6.219-5.669 2.045-1.039 4.497-1.546 6.772-1.372Z"/><path id="b" fill-rule="evenodd" d="M32.077.057c-8.116-.556-16.69 3-22.597 8.441C4.037 13.512.996 21.086.168 28.288c-.684 5.955.75 12.302 3.722 17.484 2.948 5.139 7.782 9.246 13.009 11.9 4.375 2.22 9.51 3.292 14.42 2.916 7.471-.572 16.023-2.349 21.457-7.976 5.474-5.666 7.251-14.32 7.224-21.91-.04-6.661-2.023-13.843-6.403-19.042C48.363 5.447 40.314.626 32.078.061V.057Zm-.149 2.16c7.475.512 15.118 5.04 19.998 10.832 3.948 4.686 5.858 11.425 5.896 17.66.026 7.241-1.757 15.371-6.615 20.4-4.79 4.96-12.814 6.765-20.057 7.32-4.476.343-9.249-.652-13.26-2.688-4.897-2.486-9.422-6.364-12.107-11.045-2.74-4.776-4.074-10.725-3.45-16.162.779-6.771 3.697-13.901 8.627-18.444 5.477-5.046 13.604-8.378 20.968-7.874Z"/><path id="c" fill-rule="evenodd" d="m17.44 3.981-1.881 1.097 7.079 12.056 1.88-1.096L17.439 3.98Z"/><path id="d" fill-rule="evenodd" d="M43.907 4.608 36.42 15.851l1.812 1.198L45.72 5.806l-1.812-1.198Z"/><path id="e" fill-rule="evenodd" d="m53.917 14.437-10.89 6.503 1.123 1.858 10.89-6.502-1.123-1.859Z"/><path id="f" fill-rule="evenodd" d="m44.554 35.7-1.115 1.863 12.796 7.586 1.114-1.862L44.554 35.7Z"/><path id="g" fill-rule="evenodd" d="m39.577 42.635-2.05.732 4.9 13.546 2.05-.732-4.9-13.546Z"/><path id="h" fill-rule="evenodd" d="m21.412 43.405-6.806 11.65 1.88 1.088 6.807-11.65-1.88-1.088Z"/><path id="i" fill-rule="evenodd" d="M16.376 36.365 4.26 43.138l1.063 1.893 12.115-6.773-1.063-1.893Z"/><path id="j" fill-rule="evenodd" d="m5.367 15.043-1.038 1.905 11.298 6.096 1.038-1.905-11.298-6.096Z"/><path id="k" fill-rule="evenodd" d="M7.064 18.882a.547.547 0 0 0-.345.107l-4.56 3.25a.543.543 0 1 0 .638.881l4.56-3.25a.542.542 0 0 0-.293-.988Z"/><path id="l" fill-rule="evenodd" d="M7.8 20.575a.546.546 0 0 0-.383.148l-6.058 5.554a.543.543 0 0 0 .559.91.548.548 0 0 0 .182-.11l6.057-5.554a.54.54 0 0 0-.357-.948Z"/><path id="m" fill-rule="evenodd" d="M8.642 22.946a.546.546 0 0 0-.327.139L.487 29.926a.542.542 0 1 0 .715.817l7.831-6.84a.542.542 0 0 0-.39-.957Z"/><path id="n" fill-rule="evenodd" d="M9.097 25.587a.546.546 0 0 0-.383.143l-7.69 6.909a.542.542 0 0 0 .338.944.547.547 0 0 0 .393-.14l7.691-6.908a.541.541 0 0 0-.349-.948Z"/><path id="o" fill-rule="evenodd" d="M9.871 28.23a.547.547 0 0 0-.327.133L1.24 35.475a.542.542 0 1 0 .71.822l8.304-7.112a.542.542 0 0 0-.383-.956Z"/><path id="p" fill-rule="evenodd" d="M10.824 31.277a.545.545 0 0 0-.332.135l-8.371 7.18a.542.542 0 0 0 .318.951.548.548 0 0 0 .396-.13l8.372-7.18a.543.543 0 0 0-.058-.874.546.546 0 0 0-.325-.082Z"/><path id="q" fill-rule="evenodd" d="M11.445 34.664a.546.546 0 0 0-.331.132L3.15 41.433a.545.545 0 0 0-.171.578.543.543 0 0 0 .682.357.546.546 0 0 0 .187-.1l7.963-6.638a.542.542 0 0 0-.366-.966Z"/></defs></svg>
